X: 1
T: Honey in the Woodpile
C: Jeremiah McLane 2015
R: reel
Z: 2017 John Chambers <jc:trillian.mit.edu>
M: C|
L: 1/8
K: D
|:\
d4 c2BA | B2F2 A4 |\
F2A2 B2A2 | F2A2 B2c2 |\
d4 c2BA | B2F2 A4 |\
B3 A F2D2 | F2A2 HB4 :|
|:\
F2A2 E2DE | FDB,2 A,4 |\
[1,3 DCDE FAFD | C2D2 B,2A,2 :|\
[2 F2A2 E2B2 | AFE2 D4 :|\
[4 F2A2 E2B2 | F2A2 E2e2 |]
